X:45
T:Sonny Brogan's #2
T:Bryan O'Lynn
T:Old John's Jig
R:jig
H:See also #126, #134
D:Oisin: Over the Moor to Maggie
Z:id:hn-jig-45
M:6/8
K:Ador
cBA cBA|GEG GAB|cAG A2G|Ad^c ded|cBA cBA|~G3 GAB|cde ged|1 cAG A2B:|2 cAG A2d||
|:egg eaa|ged cAA|egg eaa|bag a2g|egg eaa|ged cAA|cde ged|1 cAG A2d:|2 cAG A2B||
P:Version of 1st part
cAA cAG|EDE GAB|cAG A2G|Add ded|cAA cAG|EDE GAB|cde ged|1 cAA A2B:|2 cAA A2d||
<end>
<start>
